X: 23930
T: Lochaber Badger, The
R: reel
M: 4/4
K: Adorian
e2 dc dc A2|A2 GA cGAc|e2 dc dc A2|1 AGcG A2A/G/E:|2 AGcG A4||
A2 GA cA d2-|d2 dc dg e2-|e2 dc dc A2|1 AGcG A2A/G/E:|2 AGcG A4||

